X: 20431
T: the Widow's Lilt
%R: shottish, strathepey, march
B: James Oswald "The Caledonian Pocket Companion" v.2 p.43
Z: 2019 John Chambers <jc:trillian.mit.edu>
M: 2/4
L: 1/8
K: Bb
|: "_Brisk"\
F>GB>c | d2b>g | f>dB>d | c/c/c c2 | F>GB>c | d2b>g | f>dc>d | B/B/B B2 :: bdfd | Bfdb |
fdBd | c/c/c c2 | bdfd | Bfdb | fdcd | B/B/B B2 :: F2Bd | fBdf | (g/a/b) fd | c/c/cc2 |
F2Bd | fBdf | (g/a/b) fd | B/B/B B2 :: (g/a/b) fd | Bfdf | (g/a/b) fd | c/c/c c2 | gbfg | dfTgf |
g/a/b fd | B/B/B B2 :: d2TcB | G2B2 | F>GB>d | c/c/c c2 | d2TcB | G2B2 | Fbfd | B/B/B B2 ::
baTgf | dfTgf | BfTgf | bdTc2 | baTgf | dfTgf | gbfd | (TcB)B2 :: B2FB | dBfd |
bdbd | c/c/c c2 | B2FB | dBfd | ecfd | B/B/B B2 :: b2fd | bdbd | b2fd | c/c/c c2 |
b2fd | Bfdb | _ecfd  | B/B/B B2 :: (B/c/d) dd | (c/d/_e) .e.e | (d/_e/f) .f.f | (A/B/c) .c.c | (B/c/d) .d.d | (c/d/_e) .e.e |
dbfd | B/B/B B2 :: (g/a/b) .b.b | (a/g/f) .f.f | (e/f/g) .g.g | (f/_e/d) .d.d | (c/d/_e) .e.e | dbfd | _ecfd | B/B/B B2 :|
